X: 37891
T: Souter Creek
R: reel
M: 4/4
K: Gmajor
"G"BdcB GDGA|"C"ABAG EGGA|"G/B"B/c/d cB G2ga|"Em"bagd "D"Beed|
"G"B/c/d cB GDGA|"C"B2AG EGga|"Em"bagd "/C"c2 B/c/d|"D"c2 B/A/G DGG2:|
|:"G"DGBd c2BG|"C"EGcd cBG2|"G/B"DGBG "C"EGcd|"D"Addc B2AG|
"G"DG B/c/d c3B|"C"EGcd cBga|"Em"bagd c2 "/C"B/c/d|"D"c2 B/A/G DGG2:|

